X: 344
T:Mick O'Connor's Reel
M:C|
L:1/8
C:Mick O'Connor
R:reel
D:Lnasa: Redwood
Z:Devin McCabe
K:D
A,B,DA, FDED|B,EED EFDB,|A,B,DE FABD|dBAF EFDB,|
!G,A,A,G FEED|B,EED EFDB,|A,B,DE FABD|1dBAF EDDB,:|2dBAF EDDA|
!|:d3f affa|edBd edBA|defa defa|eAde fddc|
!cd2f affa|edBd edBd|e~f2a b/2a/2f af|1eAde fddc:|2eAde fdd2||
